X: 3249
T: Behind The Ditch In Pairc Anna
R: hornpipe
M: 4/4
K: Amixolydian
|:G|EAAB c2d2|eged B2d2|.e2A2 BAGB|AGEF GEDG|
EAAB c2d2|eged B2d2|.e2Ac BAGE|A2AB A3:|
g|eaag e2d2|eaag egd2|.e2A2 BAGB|AGEF GED2|
eaag e2d2|eaag egd2|.e2Ac BAGE|A2AB A3g|
eaag e2d2|eaag egd2|.e2A2 BAGB|AGEF GEDG|
EAAB c2d2|eged B2d2|.e2Ac BAGE|A2AB A3||

